X: 40
M:2/4
L:1/16
K:Bb
uF2|.B2(gf) edcB|ABcd eFGA|BAcB dced|fgec BAGF|
.B2(gf) edcB|ABcB AGFE|DBEB FBGB|AgfA B2:|
|:uF2|vkD2FF BFdB|kE2GG cGec|dBgf edcB|.A(f"0"=ef) "4"ecAF|


